X: 5715
T: Caddy's Fancy, The
R: jig
M: 6/8
K: Dmajor
|:FEF DFA|(3Bcd B AFD|FDD ADD|BAF EAG|
FEF DFA|(3Bcd B ABd|fdd (3fga f|1 gec dAG:|2 gec d2e||
|:fef dfa|AFA B2A|DFA dfe|dAF EAG|
FEF DFA|(3Bcd B ABd|fdd (3fga f|1 gec d2e:|2 gec dfg||
|:aAA BAG|FAA dfa|gfg afd|efd e2A|
dcd Bdd|AFA Bcd|fdd (3fga f|1 gec dfg:|2 gec dAG||

